X:159
T:Steirer
C:traditionell
R:Steirer
A:Bad Ischl, Salzkammergut
B:"Pfeifermusik aus Bad Ischl", Lois Blamberger, 3. Auflage, Bad Ischl 1990
S:im buch mit der Angabe: aus der Sammlung vom Blamberger Lois
N:im buch in D, nr. 5/2
Z:abc transcription Simon Wascher
M:3/4
L:1/8
K:D
V:1
(FdAdFd) | (EcAc) E2 | (EcAcEc) | (FdAd) F2 |\
(FdAdFd) | (EcAc) E2 | (EcAcEc) | d4 z2 :|
V:2
(AfdfAf) | (Aece) A2 | (AeceAe) | (Afdf) A2 |\
(AfdfAf) | (Aece) A2 | (AeceAe) | f4 z2 :|
